src/assets/appelapp-store-white.svg

<svg width="116" height="35" viewBox="0 0 116 35" fill="none" xmlns="http://www.w3.org/2000/svg">
<path d="M7.42652 34.7121C7.12769 34.7121 6.83607 34.7086 6.53958 34.7024C5.92538 34.695 5.31262 34.6455 4.70631 34.5544C4.14096 34.4643 3.59329 34.2967 3.08136 34.0572C2.57413 33.8196 2.11149 33.5081 1.71117 33.1346C1.30506 32.7655 0.966948 32.3374 0.710244 31.8673C0.450711 31.3941 0.271099 30.8869 0.177664 30.3634C0.0767625 29.8008 0.0221706 29.232 0.0143591 28.6618C0.00814073 28.4704 0 27.8331 0 27.8331V6.86923C0 6.86923 0.00867036 6.24177 0.0144081 6.05743C0.0218876 5.48813 0.076162 4.92019 0.176762 4.35851C0.270369 3.83354 0.45012 3.32488 0.709793 2.85014C0.965554 2.38034 1.30179 1.95192 1.70545 1.58149C2.10867 1.20755 2.57278 0.894443 3.08088 0.653596C3.59163 0.414816 4.13827 0.248414 4.70248 0.159966C5.31077 0.0679143 5.92566 0.0181466 6.542 0.0110807L7.427 0H108.223L109.119 0.0115253C109.73 0.0182402 110.339 0.0675639 110.942 0.159077C111.512 0.248634 112.064 0.416197 112.581 0.656255C113.599 1.14163 114.427 1.90954 114.949 2.85236C115.205 3.32381 115.382 3.82832 115.474 4.34876C115.576 4.91505 115.633 5.48746 115.645 6.06142C115.648 6.31843 115.648 6.59449 115.648 6.86923C115.655 7.20954 115.655 7.53346 115.655 7.86004V26.8529C115.655 27.1826 115.655 27.5044 115.648 27.8287C115.648 28.1238 115.648 28.3942 115.644 28.6724C115.632 29.2361 115.576 29.7983 115.476 30.3545C115.385 30.8818 115.206 31.3929 114.946 31.87C114.688 32.335 114.352 32.7594 113.95 33.1275C113.55 33.5031 113.086 33.8164 112.578 34.0555C112.063 34.2969 111.511 34.4651 110.942 34.5544C110.336 34.646 109.723 34.6955 109.108 34.7024C108.821 34.7086 108.52 34.7121 108.228 34.7121L107.165 34.714L7.42652 34.7121Z" fill="white"/>
<path d="M21.0417 17.1056C21.0609 15.6118 21.8441 14.2319 23.1168 13.4495C22.3102 12.2976 21.0078 11.5935 19.6023 11.5495C18.1236 11.3943 16.6901 12.4343 15.9366 12.4343C15.1685 12.4343 14.0084 11.5649 12.7591 11.5906C11.1154 11.6437 9.62013 12.5556 8.82042 13.9927C7.11741 16.9412 8.3877 21.2745 10.019 23.6578C10.8352 24.8248 11.7891 26.1285 13.0373 26.0822C14.2587 26.0316 14.7148 25.3034 16.1892 25.3034C17.6498 25.3034 18.0778 26.0822 19.3513 26.0529C20.6619 26.0316 21.4876 24.8806 22.2752 23.7025C22.8616 22.8709 23.3129 21.9519 23.6123 20.9794C22.0556 20.321 21.0435 18.7957 21.0417 17.1056Z" fill="black"/>
<path d="M18.6361 9.98191C19.3507 9.12406 19.7028 8.02144 19.6176 6.9082C18.5258 7.02287 17.5173 7.54466 16.7931 8.36959C16.0779 9.18351 15.7156 10.2483 15.786 11.3295C16.8924 11.3409 17.9429 10.8442 18.6361 9.98191Z" fill="black"/>
<path d="M46.9424 26.0835H45.1465L44.1465 23.1284H39.9785L38.9775 26.0835H37.2119L41.1602 15.1489H42.9941L46.9424 26.0835ZM40.4102 21.7642H43.7139L42.085 16.9673H42.04L40.4102 21.7642Z" fill="black"/>
<path fill-rule="evenodd" clip-rule="evenodd" d="M52.1104 18.0278C54.1337 18.0279 55.4678 19.6276 55.4678 22.0982C55.4677 24.5753 54.1415 26.1674 52.1406 26.1675C51.1063 26.2216 50.1316 25.6791 49.6318 24.772H49.5938V28.7212H47.958V18.1109H49.542V19.437H49.5723C50.0943 18.5358 51.0693 17.9943 52.1104 18.0278ZM51.6787 19.4224C50.4285 19.4225 49.5879 20.5065 49.5879 22.0982C49.588 23.7043 50.4286 24.7797 51.6787 24.7798C52.9514 24.7798 53.7861 23.7267 53.7861 22.0982C53.7861 20.4841 52.9514 19.4224 51.6787 19.4224Z" fill="black"/>
<path fill-rule="evenodd" clip-rule="evenodd" d="M60.8857 18.0278C62.9091 18.0278 64.243 19.6268 64.2432 22.0972C64.2432 24.5746 62.9171 26.1665 60.916 26.1665C59.8818 26.2205 58.908 25.679 58.4082 24.772H58.3701V28.7202H56.7334V18.1108H58.3174V19.437H58.3477C58.8696 18.5356 59.8447 17.9944 60.8857 18.0278ZM60.4551 19.4224C59.2047 19.4224 58.3633 20.5064 58.3633 22.0981C58.3634 23.7042 59.2049 24.7798 60.4551 24.7798C61.7274 24.7796 62.5614 23.7264 62.5615 22.0981C62.5615 20.4842 61.7276 19.4226 60.4551 19.4224Z" fill="black"/>
<path d="M70.0423 23.0367C70.1636 24.1211 71.217 24.8331 72.6565 24.8331C74.0358 24.8331 75.0282 24.1211 75.0282 23.1433C75.0282 22.2946 74.4297 21.7864 73.0125 21.4381L71.5954 21.0967C69.5875 20.6117 68.6553 19.6727 68.6553 18.1489C68.6553 16.2622 70.2995 14.9663 72.6342 14.9663C74.9448 14.9663 76.5288 16.2622 76.5821 18.1489H74.9301C74.8312 17.0576 73.9292 16.3989 72.6109 16.3989C71.2927 16.3989 70.3906 17.0654 70.3906 18.0354C70.3906 18.8085 70.9667 19.2634 72.3762 19.6116L73.5809 19.9074C75.8245 20.438 76.7566 21.3392 76.7566 22.9386C76.7566 24.9844 75.1271 26.2657 72.5352 26.2657C70.1103 26.2657 68.473 25.0145 68.3672 23.0367L70.0423 23.0367Z" fill="black"/>
<path d="M80.2887 16.2246V18.1113H81.8047V19.4072H80.2887V23.8023C80.2887 24.485 80.5923 24.8032 81.2587 24.8032C81.4387 24.8001 81.6184 24.7874 81.797 24.7654V26.0535C81.4974 26.1095 81.1928 26.1349 80.8881 26.1292C79.274 26.1292 78.6445 25.523 78.6445 23.9768V19.4072H77.4854V18.1113H78.6445V16.2246H80.2887Z" fill="black"/>
<path d="M86.4639 18.0132C88.7753 18.0132 90.2461 19.5897 90.2461 22.0981C90.246 24.6132 88.783 26.1821 86.4639 26.1821C84.1456 26.1821 82.6828 24.6132 82.6826 22.0981C82.6826 19.5898 84.1602 18.0132 86.4639 18.0132ZM86.4639 19.3618C85.1381 19.3619 84.3507 20.3846 84.3506 22.0972C84.3506 23.8246 85.138 24.8334 86.4639 24.8335C87.7899 24.8335 88.5791 23.8248 88.5791 22.0972C88.579 20.3767 87.7898 19.3618 86.4639 19.3618Z" fill="black"/>
<path d="M91.5947 18.1112H93.1555V19.4681H93.1934C93.411 18.5946 94.2114 17.9934 95.111 18.0278C95.2996 18.0271 95.4876 18.0476 95.6717 18.0888V19.6195C95.4336 19.5467 95.1852 19.5133 94.9364 19.5206C94.4553 19.5011 93.9897 19.6928 93.6619 20.0455C93.334 20.3981 93.1767 20.8764 93.2312 21.3548V26.0835H91.5947L91.5947 18.1112Z" fill="black"/>
<path d="M99.7139 18.0127C101.92 18.0127 103.307 19.5281 103.307 21.9453V22.5059H97.6758V22.6045C97.6232 23.198 97.8289 23.7857 98.2393 24.2178C98.6495 24.6497 99.2251 24.8851 99.8203 24.8633C100.614 24.9377 101.364 24.4817 101.662 23.7422H103.216C102.995 25.1891 101.586 26.1825 99.7832 26.1826C97.4641 26.1826 96.0245 24.6285 96.0244 22.1357C96.0244 19.6352 97.4713 18.0128 99.7139 18.0127ZM99.7129 19.3389C99.1748 19.3358 98.6575 19.5479 98.2764 19.9277C97.8952 20.3077 97.6812 20.8241 97.6826 21.3623H101.669C101.699 20.829 101.504 20.3079 101.133 19.9238C100.762 19.5397 100.247 19.3274 99.7129 19.3389Z" fill="black"/>
<path fill-rule="evenodd" clip-rule="evenodd" d="M39.1104 6.91756C39.805 6.86779 40.485 7.1326 40.9639 7.63827C41.4426 8.14389 41.6695 8.83711 41.582 9.52792C41.582 11.2064 40.6753 12.1714 39.1104 12.1715H37.2119V6.91756H39.1104ZM38.0283 11.4293H39.2041C39.6338 11.4067 40.0409 11.2168 40.335 10.8961C40.6708 10.5296 40.8233 10.0314 40.751 9.53963C40.8182 9.04962 40.6634 8.5546 40.3281 8.191C40.0348 7.87295 39.6304 7.68466 39.2031 7.66073H38.0283V11.4293Z" fill="black"/>
<path fill-rule="evenodd" clip-rule="evenodd" d="M43.3838 8.41259C43.9904 8.03627 44.7577 8.03632 45.3643 8.41259C45.9709 8.78904 46.3122 9.47726 46.2442 10.188C46.3133 10.8993 45.9724 11.5881 45.3653 11.9653C44.7581 12.3425 43.99 12.3425 43.3829 11.9653C42.7758 11.5881 42.4348 10.8993 42.5039 10.188C42.436 9.47726 42.7772 8.78904 43.3838 8.41259ZM44.375 8.82568C43.6948 8.82568 43.3125 9.32848 43.3125 10.188C43.3126 11.0542 43.695 11.5532 44.375 11.5532C45.0526 11.5532 45.4384 11.0507 45.4385 10.188C45.4385 9.32849 45.0527 8.82568 44.375 8.82568Z" fill="black"/>
<path d="M51.2148 12.1717H50.4031L49.5836 9.25135H49.5217L48.7056 12.1717H47.9016L46.8086 8.20654H47.6023L48.3126 11.2322H48.3711L49.1863 8.20654H49.937L50.7522 11.2322H50.8141L51.521 8.20654H52.3035L51.2148 12.1717Z" fill="black"/>
<path d="M53.2236 8.20644H53.9769V8.83633H54.0354C54.2388 8.37257 54.7139 8.08887 55.2187 8.1299C55.6095 8.10052 55.9924 8.25044 56.2594 8.53734C56.5264 8.82424 56.6485 9.21698 56.5911 9.60467V12.1715H55.8086V9.80118C55.8086 9.16397 55.5317 8.84709 54.9529 8.84709C54.6879 8.83474 54.4306 8.93877 54.2486 9.13191C54.0666 9.32505 53.9781 9.58803 54.0062 9.8519V12.1716H53.2236L53.2236 8.20644Z" fill="black"/>
<path d="M57.8369 6.65869H58.6194V12.1717H57.8369V6.65869Z" fill="black"/>
<path fill-rule="evenodd" clip-rule="evenodd" d="M60.587 8.41256C61.1936 8.03637 61.9609 8.03625 62.5674 8.41256C63.1741 8.78902 63.5153 9.47719 63.4473 10.188C63.5164 10.8994 63.1755 11.5881 62.5684 11.9653C61.9612 12.3425 61.1922 12.3425 60.585 11.9653C59.9781 11.588 59.638 10.8992 59.7071 10.188C59.6391 9.47719 59.9803 8.78902 60.587 8.41256ZM61.5782 8.82565C60.898 8.82565 60.5147 9.32845 60.5147 10.188C60.5147 11.0543 60.898 11.5532 61.5782 11.5532C62.2555 11.5529 62.6416 11.0507 62.6416 10.188C62.6416 9.32866 62.2555 8.82588 61.5782 8.82565Z" fill="black"/>
<path d="M66.0449 8.12988C67.0388 8.12989 67.5994 8.62458 67.5996 9.46191V12.1719H66.8467V11.6143H66.7842C66.5284 12.021 66.0737 12.2594 65.5938 12.2373C65.2571 12.2723 64.9208 12.1626 64.6689 11.9365C64.4173 11.7104 64.2728 11.3881 64.2715 11.0498C64.2717 10.3364 64.8032 9.92477 65.7461 9.86621L66.8203 9.80469V9.46191C66.8201 9.04337 66.5435 8.80664 66.0088 8.80664C65.572 8.80664 65.2695 8.96771 65.1826 9.24805H64.4248C64.5048 8.56698 65.1454 8.12988 66.0449 8.12988ZM65.8525 10.4414C65.3066 10.478 65.0586 10.6641 65.0586 11.0137C65.0586 11.3705 65.3684 11.578 65.7939 11.5781C66.0459 11.6036 66.2977 11.5257 66.4912 11.3623C66.6848 11.1989 66.8042 10.9637 66.8213 10.7109V10.3799L65.8525 10.4414Z" fill="black"/>
<path d="M72.3311 12.1714H71.5811V11.5454H71.5195C71.2654 11.9895 70.7857 12.2555 70.2744 12.2368C69.2657 12.2369 68.6279 11.4429 68.6279 10.187C68.6281 8.93433 69.2727 8.14111 70.2744 8.14111C70.7802 8.11793 71.254 8.38862 71.4902 8.83643H71.5488V6.65869H72.3311V12.1714ZM70.4961 8.84326C69.8376 8.84343 69.4366 9.35317 69.4365 10.187C69.4365 11.0279 69.8333 11.5345 70.4961 11.5347C71.1556 11.5347 71.5634 11.0211 71.5635 10.1909C71.5635 9.36453 71.1514 8.84326 70.4961 8.84326Z" fill="black"/>
<path fill-rule="evenodd" clip-rule="evenodd" d="M76.4483 8.41262C77.0549 8.0363 77.8222 8.03628 78.4287 8.41262C79.0354 8.78907 79.3766 9.47729 79.3086 10.188C79.3777 10.8993 79.0368 11.5882 78.4297 11.9653C77.8226 12.3425 77.0544 12.3425 76.4473 11.9653C75.8402 11.5882 75.4993 10.8993 75.5684 10.188C75.5004 9.47729 75.8416 8.78907 76.4483 8.41262ZM77.4395 8.8257C76.7593 8.8257 76.376 9.32851 76.376 10.188C76.3761 11.0542 76.7594 11.5532 77.4395 11.5532C78.1168 11.5531 78.5029 11.0506 78.503 10.188C78.503 9.32864 78.1169 8.82585 77.4395 8.8257Z" fill="black"/>
<path d="M80.3574 8.20644H81.1107V8.83633H81.1692C81.3725 8.37257 81.8477 8.08887 82.3525 8.1299C82.7433 8.10052 83.1262 8.25044 83.3932 8.53734C83.6602 8.82424 83.7823 9.21698 83.7249 9.60467V12.1715H82.9424V9.80118C82.9424 9.16397 82.6655 8.84709 82.0867 8.84709C81.8217 8.83474 81.5644 8.93877 81.3824 9.13191C81.2004 9.32505 81.1119 9.58803 81.14 9.8519V12.1716H80.3574V8.20644Z" fill="black"/>
<path d="M88.1472 7.21924V8.22449H89.0063V8.88363H88.1472V10.9225C88.1472 11.3379 88.3184 11.5197 88.7079 11.5197C88.8076 11.5194 88.9073 11.5134 89.0063 11.5017V12.1535C88.8658 12.1786 88.7234 12.192 88.5806 12.1935C87.7104 12.1935 87.3638 11.8873 87.3638 11.1229V8.88359H86.7344V8.22445H87.3638V7.21924H88.1472Z" fill="black"/>
<path d="M90.0752 6.65869H90.8508V8.84377H90.9128C91.1259 8.37594 91.6094 8.09189 92.1218 8.13347C92.5104 8.11232 92.8881 8.26555 93.1522 8.5514C93.4163 8.83726 93.5391 9.22598 93.4873 9.61168V12.1717H92.704V9.80472C92.704 9.17139 92.409 8.85063 91.8561 8.85063C91.5839 8.82831 91.3157 8.92728 91.1232 9.12109C90.9307 9.31491 90.8336 9.5838 90.8578 9.85588V12.1717H90.0752L90.0752 6.65869Z" fill="black"/>
<path fill-rule="evenodd" clip-rule="evenodd" d="M96.3284 8.12995C97.4316 8.12995 98.0979 8.8839 98.0979 10.129V10.4024H95.2981V10.4464C95.2734 10.7404 95.3736 11.031 95.5745 11.2471C95.7755 11.4634 96.0585 11.5854 96.3538 11.5821C96.7364 11.628 97.1093 11.4382 97.2971 11.1016H98.05C97.8305 11.8493 97.107 12.3321 96.3323 12.2481C95.8037 12.2621 95.2953 12.0434 94.9426 11.6495C94.59 11.2555 94.4281 10.726 94.5002 10.2022C94.4299 9.67695 94.5911 9.1465 94.9416 8.74909C95.2923 8.35172 95.7984 8.12553 96.3284 8.12995ZM96.3245 8.79596C96.0511 8.79255 95.7883 8.90044 95.595 9.09381C95.4017 9.28718 95.2946 9.54995 95.2981 9.82331H97.301C97.3209 9.55435 97.226 9.28937 97.0403 9.09381C96.8544 8.8982 96.5942 8.78978 96.3245 8.79596Z" fill="black"/>
</svg>

<svg xmlns="http://www.w3.org/2000/svg" width="116" height="35" fill="none" viewBox="0 0 116 35"><path fill="#fff" d="M7.427 34.712c-.3 0-.59-.003-.887-.01a13 13 0 0 1-1.834-.148 6.1 6.1 0 0 1-1.625-.497 5.3 5.3 0 0 1-1.37-.922 4.93 4.93 0 0 1-1.534-2.771q-.15-.846-.163-1.702C.008 28.47 0 27.833 0 27.833V6.87s.009-.627.014-.812q.012-.855.163-1.698a4.96 4.96 0 0 1 1.528-2.78A5.5 5.5 0 0 1 3.081.654 6 6 0 0 1 4.702.16a13 13 0 0 1 1.84-.149L7.427 0h100.796l.896.012q.917.01 1.823.147c.57.09 1.122.257 1.639.497a5.3 5.3 0 0 1 2.368 2.196c.256.472.433.976.525 1.497q.153.85.171 1.712c.003.257.003.533.003.808.007.34.007.664.007.991v18.993c0 .33 0 .651-.007.976 0 .295 0 .565-.004.843a11 11 0 0 1-.168 1.683 4.9 4.9 0 0 1-.53 1.515 5 5 0 0 1-.996 1.257c-.4.376-.864.69-1.372.928a6 6 0 0 1-1.636.5q-.91.136-1.834.147c-.287.007-.588.01-.88.01l-1.063.002z"/><path fill="#000" d="M21.042 17.106a4.36 4.36 0 0 1 2.075-3.657 4.46 4.46 0 0 0-3.515-1.9c-1.478-.155-2.912.885-3.665.885-.768 0-1.929-.87-3.178-.843a4.68 4.68 0 0 0-3.939 2.402c-1.703 2.948-.432 7.281 1.199 9.665.816 1.167 1.77 2.47 3.018 2.424 1.222-.05 1.678-.779 3.152-.779 1.46 0 1.889.78 3.162.75 1.31-.021 2.137-1.172 2.924-2.35a9.7 9.7 0 0 0 1.337-2.724 4.21 4.21 0 0 1-2.57-3.873m-2.406-7.124a4.3 4.3 0 0 0 .982-3.074 4.37 4.37 0 0 0-2.825 1.462 4.08 4.08 0 0 0-1.007 2.96 3.61 3.61 0 0 0 2.85-1.348m28.306 16.102h-1.795l-1-2.956h-4.169l-1 2.956h-1.766l3.948-10.935h1.834zm-6.532-4.32h3.304l-1.629-4.797h-.045z"/><path fill="#000" fill-rule="evenodd" d="M52.11 18.028c2.024 0 3.358 1.6 3.358 4.07 0 2.477-1.327 4.07-3.327 4.07a2.7 2.7 0 0 1-2.51-1.396h-.037v3.95h-1.636V18.11h1.584v1.326h.03a2.83 2.83 0 0 1 2.538-1.41m-.431 1.394c-1.25 0-2.091 1.084-2.091 2.676 0 1.606.84 2.682 2.09 2.682 1.273 0 2.108-1.053 2.108-2.682 0-1.614-.835-2.676-2.107-2.676m9.207-1.392c2.023 0 3.357 1.599 3.357 4.07 0 2.477-1.326 4.069-3.327 4.069a2.7 2.7 0 0 1-2.508-1.395h-.038v3.948h-1.637V18.11h1.584v1.327h.03a2.83 2.83 0 0 1 2.539-1.41m-.43 1.394c-1.251 0-2.093 1.084-2.093 2.676 0 1.606.842 2.682 2.092 2.682 1.272 0 2.106-1.054 2.107-2.682 0-1.614-.834-2.675-2.107-2.676" clip-rule="evenodd"/><path fill="#000" d="M70.042 23.037c.122 1.084 1.175 1.796 2.614 1.796 1.38 0 2.372-.712 2.372-1.69 0-.848-.598-1.357-2.016-1.705l-1.417-.341c-2.007-.485-2.94-1.424-2.94-2.948 0-1.887 1.644-3.183 3.98-3.183 2.31 0 3.894 1.296 3.947 3.183H74.93c-.099-1.091-1-1.75-2.32-1.75-1.317 0-2.22.666-2.22 1.636 0 .773.577 1.228 1.986 1.577l1.205.295c2.243.531 3.176 1.432 3.176 3.032 0 2.045-1.63 3.327-4.222 3.327-2.425 0-4.062-1.251-4.168-3.23zm10.247-6.812v1.886h1.516v1.296h-1.516v4.395c0 .683.303 1.001.97 1.001q.27-.005.538-.038v1.288a4.5 4.5 0 0 1-.909.076c-1.614 0-2.244-.606-2.244-2.152v-4.57h-1.159v-1.296h1.16v-1.886zm6.175 1.788c2.311 0 3.782 1.577 3.782 4.085 0 2.515-1.463 4.084-3.782 4.084s-3.781-1.569-3.781-4.084c0-2.508 1.477-4.085 3.78-4.085m0 1.349c-1.326 0-2.113 1.023-2.113 2.735 0 1.728.787 2.736 2.113 2.736s2.115-1.008 2.115-2.736c0-1.72-.79-2.735-2.115-2.735m5.132-1.251h1.56v1.357h.038a1.9 1.9 0 0 1 1.918-1.44q.284 0 .56.06v1.531a2.3 2.3 0 0 0-.735-.098 1.65 1.65 0 0 0-1.705 1.834v4.729h-1.636zm8.119-.098c2.206 0 3.593 1.515 3.593 3.932v.56h-5.631v.1a2.077 2.077 0 0 0 2.144 2.258 1.805 1.805 0 0 0 1.842-1.12h1.554c-.221 1.446-1.63 2.44-3.433 2.44-2.319 0-3.758-1.555-3.759-4.047 0-2.5 1.447-4.123 3.69-4.123m-.001 1.326a2.02 2.02 0 0 0-2.03 2.023h3.986a1.916 1.916 0 0 0-1.956-2.023"/><path fill="#000" fill-rule="evenodd" d="M39.11 6.918a2.324 2.324 0 0 1 2.472 2.61c0 1.678-.907 2.643-2.472 2.643h-1.898V6.919zm-1.082 4.511h1.176a1.653 1.653 0 0 0 1.547-1.89 1.657 1.657 0 0 0-1.548-1.878h-1.175zm5.356-3.016a1.878 1.878 0 0 1 2.86 1.775 1.879 1.879 0 1 1-3.74 0 1.88 1.88 0 0 1 .88-1.775m.991.413c-.68 0-1.062.502-1.062 1.362 0 .866.382 1.365 1.062 1.365.678 0 1.063-.502 1.063-1.365 0-.86-.385-1.362-1.063-1.362" clip-rule="evenodd"/><path fill="#000" d="M51.215 12.172h-.812l-.82-2.92h-.061l-.816 2.92h-.804l-1.093-3.965h.793l.71 3.025h.06l.814-3.025h.751l.815 3.025h.062l.707-3.025h.782zm2.009-3.966h.753v.63h.058a1.19 1.19 0 0 1 1.184-.706 1.29 1.29 0 0 1 1.372 1.475v2.566h-.782v-2.37c0-.637-.277-.954-.856-.954a.91.91 0 0 0-.947 1.005v2.32h-.782zm4.613-1.547h.782v5.513h-.782z"/><path fill="#000" fill-rule="evenodd" d="M60.587 8.413a1.878 1.878 0 0 1 2.86 1.775 1.879 1.879 0 1 1-3.74 0 1.88 1.88 0 0 1 .88-1.775m.991.413c-.68 0-1.063.502-1.063 1.362 0 .866.383 1.365 1.063 1.365.677 0 1.064-.502 1.064-1.365 0-.86-.387-1.362-1.064-1.362" clip-rule="evenodd"/><path fill="#000" d="M66.045 8.13c.994 0 1.554.495 1.555 1.332v2.71h-.753v-.558h-.063c-.256.407-.71.645-1.19.623a1.2 1.2 0 0 1-1.322-1.187c0-.714.531-1.125 1.474-1.184l1.074-.061v-.343c0-.419-.276-.655-.811-.655-.437 0-.74.16-.826.441h-.758c.08-.681.72-1.118 1.62-1.118m-.192 2.311c-.546.037-.794.223-.794.573 0 .357.31.564.735.564a.935.935 0 0 0 1.027-.867v-.331zm6.478 1.73h-.75v-.626h-.062c-.254.444-.733.71-1.245.692-1.008 0-1.646-.794-1.646-2.05 0-1.253.645-2.046 1.646-2.046.506-.023.98.248 1.216.695h.059V6.66h.782zm-1.835-3.328c-.658 0-1.06.51-1.06 1.344 0 .84.397 1.348 1.06 1.348.66 0 1.067-.514 1.068-1.344 0-.826-.413-1.348-1.068-1.348"/><path fill="#000" fill-rule="evenodd" d="M76.448 8.413a1.878 1.878 0 0 1 2.86 1.775 1.879 1.879 0 1 1-3.74 0 1.88 1.88 0 0 1 .88-1.775m.992.413c-.68 0-1.064.503-1.064 1.362 0 .866.383 1.365 1.063 1.365.678 0 1.064-.502 1.064-1.365 0-.86-.386-1.362-1.064-1.362" clip-rule="evenodd"/><path fill="#000" d="M80.357 8.206h.754v.63h.058a1.19 1.19 0 0 1 1.184-.706 1.29 1.29 0 0 1 1.372 1.475v2.566h-.783v-2.37c0-.637-.276-.954-.855-.954a.91.91 0 0 0-.947 1.005v2.32h-.783zm7.79-.986v1.004h.86v.66h-.86v2.038c0 .416.171.598.56.598q.15 0 .3-.018v.651q-.212.039-.426.04c-.87 0-1.217-.306-1.217-1.07v-2.24h-.63v-.659h.63V7.22zm1.928-.561h.776v2.185h.062a1.22 1.22 0 0 1 1.209-.71 1.306 1.306 0 0 1 1.365 1.478v2.56h-.783V9.805c0-.634-.295-.954-.848-.954a.926.926 0 0 0-.998 1.005v2.316h-.783z"/><path fill="#000" fill-rule="evenodd" d="M96.328 8.13c1.104 0 1.77.754 1.77 1.999v.273h-2.8v.044a1.047 1.047 0 0 0 1.056 1.136.95.95 0 0 0 .943-.48h.753a1.61 1.61 0 0 1-1.718 1.146 1.8 1.8 0 0 1-1.832-2.046 1.83 1.83 0 0 1 1.828-2.072m-.004.666a1.014 1.014 0 0 0-1.026 1.027h2.003a.957.957 0 0 0-.977-1.027" clip-rule="evenodd"/></svg>
